X:468540
T:Mull of Kintyre (*Incomplete)
H:
C:
B: Scots Guards I
O:Kevin Fraser
Z:Kevin Fraser
Q:3/8=120
K:HP
M:6/8
L:1/8
R:Jig
U: R = ///
U: r = //
U: V = !accent!
V:M gstem=up stem=down name="Melody"
V:H gstem=up stem=down name="Harmony"
V:C gstem=up stem=down name="C-Harmony"
V:S gstem=up stem=down dyn=up stafflines=1 clef=perc middle=G name="Snare" sname="Snare"
V:B gstem=up stem=down clef=none dyn=up name="Bass"
V:T gstem=up stem=down clef=none dyn=up name="Tenor"
V:BB gstem=up stem=down name="Brass Bass" sname="ABCD-C" transpose=-1  octave=-1 clef=bass
V:BC gstem=up stem=down name="Brass Chord" sname="ABCD-D" transpose=-1
V:BD gstem=up stem=down name="Brass Chord 2" sname="ABCD-B" transpose=-1
V:P gstem=up stem=down name="Piano" octave=-1
I:MIDI=program 110
%%MIDI gracedivider 4
%%MIDI gchord
%%MIDI beatstring 
I:linebreak $
% %score {M S}
%%score {M}
%%MIDI program 109 #bagpipes
%%MIDI vol 100
[V:M] [|:{g}f/e/ | {Gdc}d2{e}A {g}A{d}A{e}A | {g}Bcd {c}d{g}fe | {Gdc}d2{e}A {g}A{d}A{e}A | {G}Bcd  {g}efe | $
[V:M]         x  | {Gdc}d2{e}A {g}A{d}A{e}A | {g}Agf {gef}e2a | {gf}fed {g}edB | {g}A2{Gdc}d {gdc}d2 x :|] $

